X: 105
T: No_64_Song_During_Treatment_of_the_Sick_(b).krn
N: Derived from No_64_Song_During_Treatment_of_the_Sick_(b).krn
%%abc-version 2.0
%%abcx-abcm2ps-target-version 5.9.1 (29 Sep 2008)
%%abc-creator hum2abc beta
%%abcx-conversion-date 2019/03/15 08:35:45
%%humdrum-veritas 1143657896
%%humdrum-veritas-data 3217574050
%%linebreak <none>
%%barnumbers 0
L: 1/16
M: 2/4
K: Bb clef=bass
[K:clef=bass][M:2/4]z4z2 CC | 
C3B,B,4 | 
B,3B, B,3B, | 
(B,3G,) G, z B,B, | 
B,4G,3F, | 
F,3G, F,3F, ||  
[M:3/4]F,4F,4-F,3F, ||  
[M:2/4]F,2 z2 z2 B,B, | 
(B,3F,) F,3G, | 
F,3G, F,3F, | 
(F,3D,) D, z F,F, | 
(F,3D,) D,3B,, | 
B,,3B,, B,,3B,, | 
B,,4B,,4- | 
B,,8 |]  



